app/dist/common/images/riyad-bank.svg

<svg height="18" viewBox="0 0 18 18" width="18" xmlns="http://www.w3.org/2000/svg"><path d="m0 0h18v18h-18z" fill="#f0f3fa"/><path d="m10 7v-1.1c0-.37-.02-.9-.7-.9h-.3v5.08c0 1.34.85 1.92 2.02 1.92h1.77c1.36 0 2.21-.77 2.21-2.2v-.24c0-1.76-.72-2.56-2.4-2.56zm.9 4c-.44 0-.9-.5-.9-.97v-2.03h2.79c.73 0 1.21.39 1.21 1.3v.73c0 .69-.81.97-1.25.97zm-7.9-1.17c0-1.24 0-2.83 2.16-2.83h2.84v1h-1.9c-1.36 0-2.1.16-2.1 1.5v1.29c0 .55-.01 1.21-.67 1.21h-.33z" fill="#008e7f"/></svg>

<!-- by TradingView --><svg width="18" height="18" viewBox="0 0 18 18" xmlns="http://www.w3.org/2000/svg"><path fill="#F0F3FA" d="M0 0h18v18H0z"/><path d="M10 7V5.9c0-.37-.02-.9-.7-.9H9v5.08c0 1.34.85 1.92 2.02 1.92h1.77c1.36 0 2.21-.77 2.21-2.2v-.24C15 7.8 14.28 7 12.6 7H10Zm.9 4c-.44 0-.9-.5-.9-.97V8h2.79c.73 0 1.21.39 1.21 1.3v.73c0 .69-.81.97-1.25.97H10.9ZM3 9.83C3 8.59 3 7 5.16 7H8v1H6.1C4.74 8 4 8.16 4 9.5v1.29c0 .55-.01 1.21-.67 1.21H3V9.83Z" fill="#008E7F"/></svg>
